X: 98
T: Pan króluje, który włada anioły lotnemi:
C: Mikołaj Gomółka
%%abc-version 2.0
%%abcx-abcm2ps-target-version 5.9.1 (29 Sep 2008)
%%abc-creator hum2abc beta
%%abcx-conversion-date 2021/10/04 07:59:09
%%abc-edited-by Marta Lawrence
%%abcx-initial-encoding-date 2020-02-15
%%humdrum-veritas 1582140664
%%humdrum-veritas-data 1450314507
%%linebreak <none>
%%barnumbers 0
L: 1/4
M: C|
N: Derived from pl-wn--sd-xvi-qu-273--099_gomolka-mikolaj--pan-kroluje-ktory-wlada-anioly-lotnemi.krn
%%staves [1 2 3 4]
V: 1
V: 2 clef=alto
V: 3 clef=tenor
V: 4 clef=bass
K: F
[V:1] C4F2F2 [|] 
[V:2] A,2>B,2C2C2 [|] 
[V:3] F,4A,2A,2 [|] 
[V:4] F,,4F,,G,,A,,B,, [|] 
[V:1] E2A2G2G2 [|] 
[V:2] C2>D2E2C2 [|] 
[V:3] G,2A,B,C2G,2 [|] 
[V:4] C,2F,2E,2E,2 [|] 
[V:1] F2B2>A2GF [|] 
[V:2] D2>C2B,2B,2 [|] 
[V:3] B,2>A,2G,F,E,D, [|] 
[V:4] D,2B,,4B,,2 [|] 
[V:1] E2F4E2 [|] 
[V:2] G,2C2D2CB, [|] 
[V:3] E,2A,2G,2G,2 [|] 
[V:4] C,2A,,2B,,2C,2 [|] 
[V:1] F4 :|]  
[V:2] A,4 :|]  
[V:3] F,4 :|]  
[V:4] F,,4 :|]  
[V:1] A4 [I:setbarnb 6][|] 
[V:2] F4 [|] 
[V:3] C4 [|] 
[V:4] F,4 [|] 
[V:1] A2>A2G3A [|] 
[V:2] F2>E2D2D2 [|] 
[V:3] D2>C2B,3A, [|] 
[V:4] D,2>D,2G,3F, [|] 
[V:1] B2B2A2G2 [|] 
[V:2] _E2DEF2E2 [|] 
[V:3] G,A,B,2C2C2 [|] 
[V:4] _E,2B,,2F,2C,2 [|] 
[V:1] F2>E2DCD2 [|] 
[V:2] D2>C2B,3A, [|] 
[V:3] A,2B,2>A,2G,F, [|] 
[V:4] D,2B,,4B,,2 [|] 
[V:1] E2c2c3c [|] 
[V:2] G,2=E2F3F [|] 
[V:3] E,2G,2A,3B, [|] 
[V:4] C,2C,2F,3F, [|] 
[V:1] A2c2B3A [|] 
[V:2] F2>E2DCD2 [|] 
[V:3] C2A,2B,2B,2 [|] 
[V:4] F,2F,2G,3F, [|] 
[V:1] GFGA2<B2A [|] 
[V:2] E2E2F3E [|] 
[V:3] C2C2D3C [|] 
[V:4] =E,D,C,2B,,4 [|] 
[V:1] G2F4E2 [|] 
[V:2] D2A,2D2CB, [|] 
[V:3] B,2C2B,2G,2 [|] 
[V:4] B,,2A,,2B,,2C,2 [|] 
[V:1] F32 |]  
[V:2] C32 |]  
[V:3] A,32 |]  
[V:4] F,,32 |]  


